X:1
T:Yukon
T:Peter Bird
T:selected lines from poems of Robert W. Service (1874-1958)
T:Yukon
T:Copyright © 2015 by George Peter Bird.  This edition may be freely distributed, duplicated, performed, and recorded.
T:Copyright © 2015 by George Peter Bird.  This edition may be freely distributed, duplicated, performed, and recorded.
T:Copyright © 2015 by George Peter Bird.  This edition may be freely distributed, duplicated, performed, and recorded.
T:Copyright © 2015 by George Peter Bird.  This edition may be freely distributed, duplicated, performed, and recorded.
T:Copyright © 2015 by George Peter Bird.  This edition may be freely distributed, duplicated, performed, and recorded.
T:Copyright © 2015 by George Peter Bird.  This edition may be freely distributed, duplicated, performed, and recorded.
T:Copyright © 2015 by George Peter Bird.  This edition may be freely distributed, duplicated, performed, and recorded.
T:Copyright © 2015 by George Peter Bird.  This edition may be freely distributed, duplicated, performed, and recorded.
T:Copyright © 2015 by George Peter Bird.  This edition may be freely distributed, duplicated, performed, and recorded.
T:Copyright © 2015 by George Peter Bird.  This edition may be freely distributed, duplicated, performed, and recorded.
T:Copyright © 2015 by George Peter Bird.  This edition may be freely distributed, duplicated, performed, and recorded.
T:Copyright © 2015 by George Peter Bird.  This edition may be freely distributed, duplicated, performed, and recorded.
T:Copyright © 2015 by George Peter Bird.  This edition may be freely distributed, duplicated, performed, and recorded.
C:Peter Bird
Z:selected lines from poems of Robert W. Service (1874-1958)
Z:Copyright © 2015 by George Peter Bird.  This edition may be freely distributed, duplicated, performed, and recorded.
%%score [ 1 ( 2 3 ) 4 ( 5 6 ) ]
L:1/8
Q:1/4=64
M:4/4
K:E
V:1 treble nm="SOPRANO" snm="S."
V:2 treble nm="ALTO" snm="A."
V:3 treble 
V:4 treble-8 transpose=-12 nm="TENOR" snm="T."
V:5 bass nm="BASS" snm="B."
V:6 bass 
V:1
 z8 | z8 | z4 z2!mp! G2 |!<(! cd e2!<)! f4- |!mf! f2 z2!>(! dBA!>)!F |!mp! G4 z2 G2 | %6
w: ||Flat|as a drum- head|_ stretch the hag- gard|snows; The|
!<(! B2 d2 (e[df][eg])!<)![Bd] |!mf! [Be]2 [Ad]2!>(! [Gc]2!>)! [AB]2 |!mp! [Ac]4 z2 g2 | %9
w: might- y skies _ _ are|pal- i- sades of|light; The|
!>(! [fg]3 e [cd]2!>)! B2 |!p! c2 [Bc]2 G2 A2 | B6 z2 |!<(! (GA)Bd (ef)!<)! g2 | %13
w: stars are blurred; the|si- lence grows and|grows;|Vast- * er and vast- * er|
"^rit."!mp! f2!>(! e2 [Bd]2!>)! [AB]2 |!p! [FG]8 |[M:2/4]!p! z2 (!fermata!B2 | %16
w: vaults the ic- y|night.|Oh|
[M:3/4]"^A"[Q:1/4=100] c6- | c6 | B6- | B6- | B6) | z2 e4- | e6- | e6- | e6- | e6 | z2 z2!mp! (G2 | %27
w: _|||||Oh|_||||Ah|
!<(! AB cd!<)! f2 |!mf! ^e6 | f6) |"^rit."!>(! g2 f2 e2!>)! | c6 |!mp! (A4 B2) | (A4 G2) | %34
w: _ _ _ _ _|||Crys- tal- line|wa-|ter(s) _|and _|
"^(perf. 5th)" G6 | !fermata!z2"^(perf. 4th)" (d4 ||[K:Eb]"^B" !tenuto![ea]6) |[Q:1/4=116] g4 z2 | %38
w: wood(s).|The|sum-|mer:|
 z6 | z6 | z6 | z6 | z4!f! d2 | e2 e2 e2 | g2 c2 A2 | (f2 B2 G2) | A6 | z6 | z2!mf! e4 | g6- | %50
w: ||||The|gray- ling a-|leap in the|riv- * *|er;||The|big-|
 g2 f4- | f2!>(! c2 B2 | e4 A2- | A2!>)!!mp! G4 | [EB]6 | z2!mf! (B2 A2) | !>!G6 | B4 f2 | %58
w: * horn|_ is a-|sleep on|_ the|hill.|The _|strong|life that|
 d2 c2 B2 | (g2 f2 e2) | f6 | z6 | z6 | z6 |!p! (B6 |"^C" c6- | c6 | B6- | B6- | B6) | z2 e4- | %71
w: ne- ver knows|har- * *|ness;||||Ah|_|||||Oh|
 e6- | e6- | e6- | e6 | z2 z2!mp! (G2 |!<(! AB cd!<)! f2 |!mf! =e6 | f6) |!>(! g2 f2 e2!>)! | %80
w: _||||Ah|_ _ _ _ _|||Crys- tal- line|
!mp! c6 | A6 | B6 |!<(! G6- |"^accel." G4!<)! z2 |!mf!!<(! G6 ||[K:D]"^D" (!>!G6 | A4)!<)! z2 | %88
w: wa-|ter(s)|and|wood(s).|_|The|win-||
!f![Q:1/4=120] B6- | B2 z2 d2 | c2 [Bc]2 F2 | (e4 d2 | c4) F2- |!>(! F6-!>)! |!mf! F6- | F6- | %96
w: ter!|_ The|bright- ness that|blinds _|_ you,|_|||
 F6- | F6 | z4!f! d2 | (!>!B2 c2 B2) | (ec B2) A2 | G2 A2 G2 | F4 c2- |!>(! c6-!>)! | c6- | %105
w: ||The|cold _ _|fear _ _ that|fol- lows and|finds you,|_||
!mp! c6- | c6- | c2!mf! z2 f2 |"^rit." d2 e2 B2 | A4 G2- | G2 F4 | d4 d2 | c4 z2 |!mp! d6- | d6- | %115
w: ||* The|snows that are|old- er|_ than|his- tor-|y,|Oh|_|
 d6 |!mf! d2 e2 B2 | A4 G2- | G2 F4 | d4 d2 | c4 z2 |!mp! z6 | g6 | f6 | d6 | c6 | B4 d2 | e4 z2 | %128
w: |Snows that are|old- er|_ than|his- tor-|y;||Still-|ness,|moon-|light,|mys- ter-|y;|
 d2 g2 f2 | B2 d2 B2 | B4 B2 | A4 z2 ||"^E"!p![Q:1/4=80] B2 B2 B2 | (A2 B2) A2 | (F2 G2 B2 | %135
w: Still- ness, the|moon- light, the|mys- ter-|y.|I am the|land _ that|list- * *|
 A4 B2) | A6 | z2!p! d4- | d6- | d6- | d6- | d6 |!mp! F2!<(! d2 e2 | [df]4!<)! [Bd]2 | %144
w: |ens,|Oh|_||||Steeped in e-|ter- nal|
!mf! (c2 B2) A2- | [AB]4 z2 |!mf! f2 [ef]2 [def]2 |!mp!!>(! B6!>)! | g6 |!>(! e6!>)! | %150
w: beau- * ty,|_|Crys- tal- line|wa-|ter(s)|and|
!p! !fermata![df]6 |] %151
w: wood(s).|
V:2
 z8 |!p! (D4 E4 | [DF]8- | [DF-]8 | F6 E2 | D4) z2!mp! C2 |!<(! E2 [EF]2 [CG]2!<)! [CF]2 | %7
w: |Ah _|_|||* The|might- y skies are|
!mf! (ED)(CB,)!>(! A,2 (C!>)!D) |!mp! E4 z2 c2 |!>(! [Bc]3 A G2!>)! G2 |!p! F2 E2 C2 C2 | E6 z2 | %12
w: pal- * i- * sades of _|light; The|stars are blurred; the|si- lence grows and|grows;|
!<(! (B,C)EF (GB)!<)! c2 |!mp! [Bc]2!>(! [Bc]2 G2!>)! F2 |!p! E8 |[M:2/4]!mp! z2 !fermata!E2 | %16
w: Vast- * er and vast- * er|vaults the ic- y|night.|Oh,|
[M:3/4] A2 G2 F2 | G4 E2 | (DE F4 | G6) | F6 | z2!p! (A4- | A6 | B6 | A6- | A4)!mp! z2 | B2 F2 E2 | %27
w: I am the|land that|list- * *||ens,|Oh|_||||Steeped in e-|
!<(! (c2 B2)!<)! A2 |!mf! G6 | [F^A]6 |!>(! [EB]2 [EA]2 [EB]2 | (A2 c2!>)! B2) |!mp! x6 | E6 | %34
w: ter- * nal|beau-|ty,|Crys- tal- line|wa- * *||and|
"^(perf. 5th)" D6 | !fermata!z2"^(dim. 3rd = maj. 2nd)" ^A4 ||[K:Eb] !tenuto!c6 | B4 z2 | z6 | z6 | %40
w: wood(s).|The|sum-|mer:|||
 z6 | z6 | z2!mf! (A,2 B,2) | E2 F2 G2 | B2 A2 c2 | B2 D2 E2 | c2 B2 A2 | (G2 F4) | z6 | z6 | z6 | %51
w: ||No _|sweet- er was|ev- er; the|sun- shin- y|woods all a-|thrill; *||||
 z2!f! (E2 D2) | !>!C6 | E4 B2 | G2 F2 E2 | (c2 B2 A2) | B6 | z6 | z6 | z6 | z2!mp! z2 A2 | %61
w: The _|strong|life that|ne- ver knows|har- * *|ness;||||The|
 G2 c2 B2 | C2 A2 G2 | (G2 F2 E2) | F4 z2 | A2 G2 F2 | G4 E2 | (DE F4 | G6) | F6 | z2!p! (A4- | %71
w: fresh- ness, the|free- dom, the|fair- * *|ness...|I am the|land that|list- * *||ens,|Oh|
 A6 | B6 | A6- | A4) z2 |!mp! B2 F2 E2 |!<(! (c2 B2)!<)! A2 |!mf! G6 | A6 |!mp! [EB]2 [EA]2 [EB]2 | %80
w: _||||Steeped in e-|ter- * nal|beau-|ty,|Crys- tal- line|
 (A2 c2 B2) | ([DA-]4 [CA]2) | [EF]6 |!<(! C6- | C4!<)! z2 |!mf! D4!<(! z2 ||[K:D] !>!E6- | %87
w: wa- * *|ter(s) _|and|wood(s).|_|The|win-|
 E4!<)! z2 |!f! D6- | D2 z2 D2 | !>!C2 B,2 D2 | (G2 A2 G2 | F4) E2- | E4!mf! C2 | D2 E2 A2 | %95
w: |ter!|_ The|bright- ness that|blinds _ _|_ you,|_ the|bright- ness that|
 (G2 A2 G2 | B4) B2- | B4 z2 | z4!mf! (F2 | E4 D2 | C6- | C4 D2- | D6- | [DE]4) z2 |!mp! (F6 | %105
w: blinds _ _|_ you,|_|Ah|_ _|||||Oh|
!<(! G2 A4-!<)! | A6 |!mf! B6) | D2 C2 D2 | D4 E2- | E2 C4 | B,4 D2 | A,4 z2 |!mp! G6- | G6- | G6 | %116
w: _ _|||Snows that are|old- er|_ than|his- tor-|y,|Oh|_||
 A2 G2 F2 | E2 G2 F2 | (E6 | F2 G2) F2 | (D2 E4- | E2) z2 F2 | B2 d2 c2 | B2 F2 E2 | (F2 B2 G2 | %125
w: Snows that are|old- er than|his-|* * tor-|y; _|_ The|woods where the|weird sha- dows|slant; _ _|
 A4 G2- | G6- | G2) z2!mp! G2 | F2 B2 A2 | B,2 G2 E2 | (F2 E2) D2 | E4 z2 ||!mp! G2 F2 E2 | F4 D2 | %134
w: _ _||* The|still- ness, the|moon- light, the|mys- * ter-|y.|I am the|land that|
 (CD E4 | F6) | E6 |!mp! D2 G2 A2 | (G2 F2 A2- | A2) A4 | G6- | G6 |!mp! E2!<(! F2 B2 | %143
w: list- * *||ens,|I am the|land _ _|_ that|broods;|_|Steeped in e-|
 !tenuto!G4!<)! G2 |!mf! F4 (D2 | [CE]6) |!mp! [DA]2 [DG]2 [DA]2 | ([DB]4 [EG]2) | [GB]6 | %149
w: ter- nal|beau- ty,|_|Crys- tal- line|wa- *|ter(s)|
!>(! ([E-G]2!>)! [EA]4) |!p! !fermata![EA]6 |] %151
w: and _|wood(s).|
V:3
 x8 | x8 | x8 | x8 | x8 | x8 | x8 | x8 | x8 | x8 | x8 | x8 | x8 | x8 | x8 |[M:2/4] x4 |[M:3/4] x6 | %17
 x6 | x6 | x6 | x6 | x6 | x6 | x6 | x6 | x6 | x6 | x6 | x6 | x6 | x6 | F6 | E6 | x6 | x6 | x6 || %36
[K:Eb] x6 | x6 | x6 | x6 | x6 | x6 | x6 | x6 | x6 | x6 | x6 | x6 | x6 | x6 | x6 | x6 | x6 | x6 | %54
 x6 | x6 | x6 | x6 | x6 | x6 | x6 | x6 | x6 | x6 | x6 | x6 | x6 | x6 | x6 | x6 | x6 | x6 | x6 | %73
 x6 | x6 | x6 | x6 | x6 | x6 | x6 | F6 | x6 | x6 | x6 | x6 | x6 ||[K:D] x6 | x6 | x6 | x6 | x6 | %91
 x6 | x6 | x6 | x6 | x6 | x6 | x6 | x6 | x6 | x6 | x6 | x6 | x6 | x6 | x6 | x6 | x6 | x6 | x6 | %110
 x6 | x6 | x6 | x6 | x6 | x6 | x6 | x6 | x6 | x6 | x6 | x6 | x6 | x6 | x6 | x6 | x6 | x6 | x6 | %129
 x6 | x6 | x6 || x6 | x6 | x6 | x6 | x6 | x6 | x6 | x6 | x6 | x6 | x6 | x6 | x6 | x6 | x6 | x6 | %148
 x6 | x6 | x6 |] %151
V:4
 z4 z2!p! G2- | G8- | G8- | G8 | (A8 | F4) z2!mp! B2 |!<(! B2 A2 G2!<)! B2 | %7
w: Oh|_|||Oh|_ The|might- y skies are|
!mf! A2 G2!>(! (ed)(c!>)!B) |!mp! A6 z2 |!>(! e2 B2 c2!>)! d2 |!p! B2 B2 B2 E2 | (F4 E4- | %12
w: pal- i- sades _ of _|light;|Stars are blurred; the|si- lence grows and|grows; _|
 E2) z2!mp! G2 F2 | [GB]2 [Ac]2 E2 E2 | (A4 B4) |[M:2/4]!p! z2 (!fermata!A2 |[M:3/4] F6 | E6 | %18
w: _ Vast- er|vaults the ic- y|night. _|Oh|_||
 G4 B2- | B4 A2 | G4) z2 |!mp! A2!<(! c2 d2 | (f4!<)! e2- | e2)!>(! d4!>)! | (c6 | B4) z2 | %26
w: |||I am the|land _|_ that|broods;|_|
!mp! G2 A2 B2 |!<(! A2!<)! c4 |!mf! (c2 d2 c2) | (c2 d2 c2) |!>(! B2 c2 B2!>)! | c6 |!mp! B6 | E6 | %34
w: Steeped in e-|ter- nal|beau- * *|ty, _ _|Crys- tal- line|wa-|ter(s)|and|
 G6 | !fermata!z2"^(same pitch)" (^A4 ||[K:Eb] !tenuto!B6) | B4 z2 | z6 | z6 | z6 | z6 | z6 | z6 | %44
w: wood(s).|The|sum-|mer:|||||||
 z6 | z6 | z6 | z4!mf! d2 | e2 e2 e2 | g2 c2 A2 | (f2 B2 G2) | A6 | z6 | z6 | z2 B4 | c6 | f4 e2 | %57
w: |||The|gray- ling a-|leap in the|riv- * *|er;|||The|wilds|where the|
 d4 c2- | c2 e4 | B6 | z6 |!p! (B6 | E6) | (c6- | [Fc]4) z2 | (F6 | E6 | G4 B2- | B4 A2 | G4) z2 | %70
w: car- i-|* bou|call;||Ah|_|Ah|_|Oh|_||||
!mp! A2!<(! c2 d2 | (f4!<)! e2- | e2)!>(! d4!>)! | (c6 | B4) z2 |!mp! G2 A2 B2 |!<(! A2!<)! c4 | %77
w: I am the|land _|_ that|broods;|_|Steeped in e-|ter- nal|
!mf! (c2 d2 c2) | (c2 d2 c2) |!mp! B2 c2 B2 | (c4 B2) | c6 | A6 |!<(! (B4 A2 | G4)!<)! z2 | %85
w: beau- * *|ty, _ _|Crys- tal- line|wa- *|ter(s)|and|wood(s). _|_|
!mf!!<(! =A6 ||[K:D] !>!e4 z2 | (c4!<)! B2- |!f! B6- | B2) z2!mp! z2 | (B6 | d6 | c6) | z4!f! B2 | %94
w: The|win-|ter! _|_||Ah|_||The|
 d2 d4 | !>!e4 [ef]2- | [ef]2 f2 d2 | e6- | e2 z2!mf! z2 | (B6- | B6 | G2 A4 | F6 | E2) z2 A2 | %104
w: white land|locked tight|_ as a|||Ah|_|||* The|
 A2 F2 F2 | G4 F2- | F2 A4 | G2 z2 z2 |!mp! (F6- | F4 A2 | G2 A2 B2 | G2 F2 E2- | E2) z2!mf! F2 | %113
w: si- lence that|blud- geons|_ you|dumb.|Oh|_ _|||* The|
 G2 B2 e2 | d2 c2 A2 | B6- | B2 z2!mp! B2 | A2 B2 A2 | c4 (A2 | B2) c2 (A2- | A4 F2 | G2) z2 A2 | %122
w: woods where the|weird sha- dows|slant;|_ The|woods where the|weird sha-|* dows slant;|_ _|* The|
 d6 | c2 c4 | d2 d2 B2 | c4 d2 | B6 |!p! (A6- | A6 | G2) (A4 | B6- | [EB]4) z2 ||!p! (E2 D2 C2 | %133
w: snows|that are|old- er than|his- tor-|y;|Ah|_|* Ah|_||Oh _ _|
 D4 F2- | F4 A2- | A4 G2 | F4) z2 |!mf! G2 B2 c2 | (e4 d2- | d2)!>(! c4!>)! | B6- | B6 | %142
w: _ _||||I am the|land _|_ that|broods;|_|
!mp! B2!<(! B2 e2 | !tenuto!d4!<)! B2 |!mf! c4 (B2 | A6) |!mp! A2 B2 A2 | ([FB]2 [Gd]2 [Be]2) | %148
w: Steeped in e-|ter- nal|beau- ty,|_|Crys- tal- line|wa- * *|
 d6 |!>(! (B2!>)! c4) |!p! !fermata![Ad]6 |] %151
w: ter(s)|and _|wood(s).|
V:5
!p! C,8- | C,8- | C,8- | C,6 (B,,2- | B,,4 C,4- | C,2 B,,6) | z8 | z8 |!mp! E,8 |!>(! A,4!>)! G,4 | %10
w: Oh|_||* Oh|_ _||||A|si- lence|
!p! C,4 B,,4 | A,,8- | A,,4 z2!mp! B,,2 | B,,2 B,,2 A,,2 A,,2 | [E,,E,]8 | %15
w: grows and|grows;|_ Vast-|er the ic- y|night.|
[M:2/4]!p! z2 (!fermata!C,2 |[M:3/4] B,,6- | B,,6- | B,,6- | B,,6- | B,,4) z2 | %21
w: Oh|_|||||
!mp! E,2!<(! F,2 F,2 | (A,4!<)! B,2 | G,2)!>(! F,4!>)! | E,6- | E,6 | z2!mp! (E,4- |!<(! E,6!<)! | %28
w: I am the|land _|_ that|broods;|_|Ah|_|
!mf! G,6 | F,4) z2 |!>(! E,2 E,2 B,,2 | (C,2 E,2!>)! F,2) |!mp! [A,,E,]6 | (A,,4 E,2) | G,6 | %35
w: ||Crys- tal- line|wa- * *|ter(s)|and *|wood(s).|
 !fermata!z2"^(same pitch)" (D,4 ||[K:Eb] !tenuto!E,6) | E,2 z2!mf! B,,2 | E,2 F,2 G,2 | %39
w: The|sum-|mer: No|sweet- er was|
 B,2 A,2 C2 | B,2 D,2 E,2 | C2 B,2 A,2 | (G,2 F,4) | z6 | z6 | z6 | z2!f! A,4 | C6- | C2 B,4- | %49
w: ev- er; the|sun- shin- y|woods all a-|thrill; *||||The|big-|* horn|
 B,2!>(! F,2 E,2 | A,4 D,2- | D,2!>)! C,4 |!mf! [A,,E,]6 | z6 | z2!mf! B,4 | F,6 | A,4 B,2 | %57
w: _ is a-|sleep on|_ the|hill.||The|wilds|where the|
 G,4 A,2- | A,2 G,4 | [B,,F,]6 | z6 |!p! (B,,6 | A,,6 | G,,6 | B,,4) z2 | B,,6- | B,,6- | B,,6- | %68
w: car- i-|* bou|call;||Ah|_|||Oh|_||
 B,,6- | B,,4 z2 |!mp! E,2!<(! F,2 F,2 | (A,4!<)! B,2 | G,2)!>(! F,4!>)! | E,6- | E,6 | %75
w: ||I am the|land _|_ that|broods;|_|
!mp! z2 (E,4- |!<(! E,6!<)! |!mf! G,6 |!>(! F,6) | E,2 E,2!>)!!mp! B,,2 | (C,2 E,2 F,2) | %81
w: Ah|_|||Crys- tal- line|wa- * *|
 [A,,E,]6 | A,,6 |!<(! (B,,6 | C,4)!<)! z2 |!mf! D,4 z2 ||[K:D]!<(! !>!B,4 z2!<)! | F,6- | %88
w: ter(s)|and|wood(s).|_|The|win-|ter!|
!f! F,6- | F,2 z2 z2 |!mp! A,6- | A,6- | A,6 | z4!f! B,2 | A,2 G,4 | F,4 D2- | D2 C2 A,2 | G,6- | %98
w: _||Ah|_||The|white land|locked tight|_ as a|drum,|
 G,2 z2 z2 |!mf! (A,4 F,2 | E,6 | C,4 D,2 | B,,6 | A,,2) z2 D,2 | C,2 C,2 B,,2 | G,,4 A,,2- | %106
w: _|Ah _|_|||* The|si- lence that|blud- geons|
 A,,2 E,4 | D,2 z2 z2 |!mp! (B,,6 | A,,2 B,,2 A,,2 | B,,6 | G,,6 | A,,6) | z6 | z6 |!mf! z2 D,4 | %116
w: _ you|dumb.|Oh|_ _ _||||||The|
 G,2 A,2 E,2 | D,4 E,2- | E,2 C,4 | B,,4 D,2 | A,,4!mp! z2 | D,6 | G,6 | B,2 A,4 | A,2 G,2 A,2 | %125
w: snows that are|old- er|_ than|his- tor-|y,|The|snows|that are|old- er than|
 (F,2 E,2) E,2 | D,6 |!>(! (E,6!>)! |!p! A,,6 | D,4 A,,2 | F,,2 G,,4 | A,,4) z2 ||!p! A,,6- | %133
w: his- * tor-|y;|Ah|_||||Oh|
 A,,6- | A,,6- | A,,6- | A,,4 z2 |!mp! D,2!<(! E,2 E,2 | (G,4!<)! A,2 | F,2)!>(! E,4!>)! | D,6- | %141
w: _||||I am the|land _|_ that|broods;|
 D,6 |!mp! F,2!<(! F,2 G,2 | !tenuto![D,B,]4!<)! [D,A,]2 |!mf! F,4 (D,2 |!mp! E,6) | D,2 D,2 A,,2 | %147
w: _|Steeped in e-|ter- nal|beau- ty,|_|Crys- tal- line|
 (B,,2 D,2 E,2) | G,6 |!>(! E,4-!>)! [A,,E,]2 |!p! !fermata![A,,D,]6 |] %151
w: wa- * *|ter(s)|and _|wood(s).|
V:6
 x8 | x8 | x8 | x8 | x8 | x8 | x8 | x8 | x8 | x8 | x8 | x8 | x8 | x8 | x8 |[M:2/4] x4 |[M:3/4] x6 | %17
 x6 | x6 | x6 | x6 | x6 | x6 | x6 | (C,2 B,,2 A,,2- | A,,6) | x6 | x6 | x6 | x6 | x6 | x6 | x6 | %33
 x6 | x6 | x6 ||[K:Eb] x6 | x6 | x6 | x6 | x6 | x6 | x6 | x6 | x6 | x6 | x6 | x6 | x6 | x6 | x6 | %51
 x6 | x6 | x6 | x6 | x6 | x6 | x6 | x6 | x6 | x6 | x6 | x6 | x6 | x6 | x6 | x6 | x6 | x6 | x6 | %70
 x6 | x6 | x6 | (C,2 B,,2 A,,2- | A,,6) | x6 | x6 | x6 | x6 | x6 | x6 | x6 | x6 | x6 | x6 | x6 || %86
[K:D] x6 | x6 | x6 | x6 | x6 | x6 | x6 | x6 | x6 | x6 | x6 | x6 | x6 | x6 | x6 | x6 | x6 | x6 | %104
 x6 | x6 | x6 | x6 | x6 | x6 | x6 | x6 | x6 | x6 | x6 | x6 | x6 | x6 | x6 | x6 | x6 | x6 | x6 | %123
 x6 | x6 | x6 | x6 | x6 | x6 | x6 | x6 | x6 || x6 | x6 | x6 | x6 | x6 | x6 | x6 | x6 | %140
 (B,,2 A,,2 G,,2- | G,,6) | x6 | x6 | x6 | x6 | x6 | x6 | x6 | x6 | x6 |] %151

